report_00007_2020-12-11T15:55:29.892Z/total-byte-weight/comparison/line/12_vs_13.svg

<svg width="640" height="500" xmlns="http://www.w3.org/2000/svg" xmlns:xlink="http://www.w3.org/1999/xlink"><path fill="#fff" d="M0 0h640v500H0z"/><defs><path id="d" stroke-width=".222" stroke="currentColor" d="M-1-1h2v2h-2z"/><path id="b" stroke-width=".222" stroke="currentColor" d="M0-1.33l-1.33 2h2.66z"/><path id="f" stroke-width=".222" stroke="currentColor" d="M0 1.33L1.265.411.782-1.067l-1.564-.009-.483 1.487z"/><use xlink:href="#b" id="c" stroke="currentColor" transform="rotate(180)"/><use xlink:href="#d" id="e" stroke="currentColor" transform="rotate(45)"/><circle id="a" stroke-width=".222" stroke="currentColor" cx="0" cy="0" r="1"/></defs><g fill="none" color="#000" stroke="currentColor"><path stroke="#000" d="M70.5 362.8h9m535.5 0h-9"/><text transform="translate(62.2 366.7)" stroke="none" fill="#000" font-family="Arial" font-size="12" text-anchor="end"><tspan>10000</tspan></text></g><g fill="none" color="#000" stroke="currentColor"><path stroke="#000" d="M70.5 297.8h9m535.5 0h-9"/><text transform="translate(62.2 301.7)" stroke="none" fill="#000" font-family="Arial" font-size="12" text-anchor="end"><tspan>20000</tspan></text></g><g fill="none" color="#000" stroke="currentColor"><path stroke="#000" d="M70.5 232.8h9m535.5 0h-9"/><text transform="translate(62.2 236.7)" stroke="none" fill="#000" font-family="Arial" font-size="12" text-anchor="end"><tspan>30000</tspan></text></g><g fill="none" color="#000" stroke="currentColor"><path stroke="#000" d="M70.5 167.8h9m535.5 0h-9"/><text transform="translate(62.2 171.7)" stroke="none" fill="#000" font-family="Arial" font-size="12" text-anchor="end"><tspan>40000</tspan></text></g><g fill="none" color="#000" stroke="currentColor"><path stroke="#000" d="M70.5 102.8h9m535.5 0h-9"/><text transform="translate(62.2 106.7)" stroke="none" fill="#000" font-family="Arial" font-size="12" text-anchor="end"><tspan>50000</tspan></text></g><g fill="none" color="#000" stroke="currentColor"><path stroke="#000" d="M70.5 37.8h9m535.5 0h-9"/><text transform="translate(62.2 41.7)" stroke="none" fill="#000" font-family="Arial" font-size="12" text-anchor="end"><tspan>60000</tspan></text></g><g fill="none" color="#000" stroke="currentColor"><path stroke="#000" d="M70.5 392v-9m0-364.9v9"/><text transform="translate(70.5 413.9)" stroke="none" fill="#000" font-family="Arial" font-size="12" text-anchor="middle"><tspan>0</tspan></text></g><g fill="none" color="#000" stroke="currentColor"><path stroke="#000" d="M125.5 392v-9m0-364.9v9"/><text transform="translate(125.5 413.9)" stroke="none" fill="#000" font-family="Arial" font-size="12" text-anchor="middle"><tspan>10</tspan></text></g><g fill="none" color="#000" stroke="currentColor"><path stroke="#000" d="M180.5 392v-9m0-364.9v9"/><text transform="translate(180.5 413.9)" stroke="none" fill="#000" font-family="Arial" font-size="12" text-anchor="middle"><tspan>20</tspan></text></g><g fill="none" color="#000" stroke="currentColor"><path stroke="#000" d="M235.5 392v-9m0-364.9v9"/><text transform="translate(235.5 413.9)" stroke="none" fill="#000" font-family="Arial" font-size="12" text-anchor="middle"><tspan>30</tspan></text></g><g fill="none" color="#000" stroke="currentColor"><path stroke="#000" d="M290.5 392v-9m0-364.9v9"/><text transform="translate(290.5 413.9)" stroke="none" fill="#000" font-family="Arial" font-size="12" text-anchor="middle"><tspan>40</tspan></text></g><g fill="none" color="#000" stroke="currentColor"><path stroke="#000" d="M345.5 392v-9m0-364.9v9"/><text transform="translate(345.5 413.9)" stroke="none" fill="#000" font-family="Arial" font-size="12" text-anchor="middle"><tspan>50</tspan></text></g><g fill="none" color="#000" stroke="currentColor"><path stroke="#000" d="M400.5 392v-9m0-364.9v9"/><text transform="translate(400.5 413.9)" stroke="none" fill="#000" font-family="Arial" font-size="12" text-anchor="middle"><tspan>60</tspan></text></g><g fill="none" color="#000" stroke="currentColor"><path stroke="#000" d="M455.5 392v-9m0-364.9v9"/><text transform="translate(455.5 413.9)" stroke="none" fill="#000" font-family="Arial" font-size="12" text-anchor="middle"><tspan>70</tspan></text></g><g fill="none" color="#000" stroke="currentColor"><path stroke="#000" d="M510.5 392v-9m0-364.9v9"/><text transform="translate(510.5 413.9)" stroke="none" fill="#000" font-family="Arial" font-size="12" text-anchor="middle"><tspan>80</tspan></text></g><g fill="none" color="#000" stroke="currentColor"><path stroke="#000" d="M565.5 392v-9m0-364.9v9"/><text transform="translate(565.5 413.9)" stroke="none" fill="#000" font-family="Arial" font-size="12" text-anchor="middle"><tspan>90</tspan></text></g><path stroke="#000" d="M70.5 18.1V392H615V18.1H70.5z" fill="none" color="#000"/><text transform="translate(537.4 431.9)" stroke="none" fill="#000" font-family="Arial" font-size="12" text-anchor="end" color="#000"><tspan>pages+cached+noexternal+nofonts+nosvg+noimg+nocss</tspan></text><path stroke="#9400D3" d="M545.7 428h42.2M70.5 25.3H615" fill="none" color="#000"/><text transform="translate(537.4 449.9)" stroke="none" fill="#000" font-family="Arial" font-size="12" text-anchor="end" color="#000"><tspan>pages+cached+noexternal+nofonts+nosvg+noimg+nocss+nojs</tspan></text><path stroke="#009E73" d="M545.7 446h42.2M70.5 384.8H615" fill="none" color="#000"/><text transform="translate(537.4 467.9)" stroke="none" fill="#000" font-family="Arial" font-size="12" text-anchor="end" color="#000"><tspan>score p10=2731008</tspan></text><path stroke="#56B4E9" d="M545.7 464h42.2" fill="none" color="#000"/><g><text transform="translate(537.4 485.9)" stroke="none" fill="#000" font-family="Arial" font-size="12" text-anchor="end" color="#000"><tspan>score median=4096000</tspan></text><path stroke="#E69F00" d="M545.7 482h42.2" fill="none" color="#000"/></g><g fill="none" color="#000" stroke="currentColor"><path stroke="#000" d="M70.5 18.1V392H615V18.1H70.5z"/></g></svg>

<?xml version="1.0" encoding="utf-8"  standalone="no"?>
<svg 
 width="640" height="500"
 viewBox="0 0 640 500"
 xmlns="http://www.w3.org/2000/svg"
 xmlns:xlink="http://www.w3.org/1999/xlink"
>

<title>Gnuplot</title>
<desc>Produced by GNUPLOT 5.4 patchlevel 0 </desc>

<g id="gnuplot_canvas">

<rect x="0" y="0" width="640" height="500" fill="#ffffff"/>
<defs>

	<circle id='gpDot' r='0.5' stroke-width='0.5' stroke='currentColor'/>
	<path id='gpPt0' stroke-width='0.222' stroke='currentColor' d='M-1,0 h2 M0,-1 v2'/>
	<path id='gpPt1' stroke-width='0.222' stroke='currentColor' d='M-1,-1 L1,1 M1,-1 L-1,1'/>
	<path id='gpPt2' stroke-width='0.222' stroke='currentColor' d='M-1,0 L1,0 M0,-1 L0,1 M-1,-1 L1,1 M-1,1 L1,-1'/>
	<rect id='gpPt3' stroke-width='0.222' stroke='currentColor' x='-1' y='-1' width='2' height='2'/>
	<rect id='gpPt4' stroke-width='0.222' stroke='currentColor' fill='currentColor' x='-1' y='-1' width='2' height='2'/>
	<circle id='gpPt5' stroke-width='0.222' stroke='currentColor' cx='0' cy='0' r='1'/>
	<use xlink:href='#gpPt5' id='gpPt6' fill='currentColor' stroke='none'/>
	<path id='gpPt7' stroke-width='0.222' stroke='currentColor' d='M0,-1.33 L-1.33,0.67 L1.33,0.67 z'/>
	<use xlink:href='#gpPt7' id='gpPt8' fill='currentColor' stroke='none'/>
	<use xlink:href='#gpPt7' id='gpPt9' stroke='currentColor' transform='rotate(180)'/>
	<use xlink:href='#gpPt9' id='gpPt10' fill='currentColor' stroke='none'/>
	<use xlink:href='#gpPt3' id='gpPt11' stroke='currentColor' transform='rotate(45)'/>
	<use xlink:href='#gpPt11' id='gpPt12' fill='currentColor' stroke='none'/>
	<path id='gpPt13' stroke-width='0.222' stroke='currentColor' d='M0,1.330 L1.265,0.411 L0.782,-1.067 L-0.782,-1.076 L-1.265,0.411 z'/>
	<use xlink:href='#gpPt13' id='gpPt14' fill='currentColor' stroke='none'/>
	<filter id='textbox' filterUnits='objectBoundingBox' x='0' y='0' height='1' width='1'>
	  <feFlood flood-color='#FFFFFF' flood-opacity='1' result='bgnd'/>
	  <feComposite in='SourceGraphic' in2='bgnd' operator='atop'/>
	</filter>
	<filter id='greybox' filterUnits='objectBoundingBox' x='0' y='0' height='1' width='1'>
	  <feFlood flood-color='lightgrey' flood-opacity='1' result='grey'/>
	  <feComposite in='SourceGraphic' in2='grey' operator='atop'/>
	</filter>
</defs>
<g fill="none" color="#FFFFFF" stroke="black" stroke-width="1.00" stroke-linecap="butt" stroke-linejoin="miter">
</g>
<g fill="none" color="black" stroke="currentColor" stroke-width="1.00" stroke-linecap="butt" stroke-linejoin="miter">
	<path stroke='black'  d='M70.5,362.8 L79.5,362.8 M615.0,362.8 L606.0,362.8  '/>	<g transform="translate(62.2,366.7)" stroke="none" fill="black" font-family="Arial" font-size="12.00"  text-anchor="end">
		<text><tspan font-family="Arial" > 10000</tspan></text>
	</g>
</g>
<g fill="none" color="black" stroke="currentColor" stroke-width="1.00" stroke-linecap="butt" stroke-linejoin="miter">
	<path stroke='black'  d='M70.5,297.8 L79.5,297.8 M615.0,297.8 L606.0,297.8  '/>	<g transform="translate(62.2,301.7)" stroke="none" fill="black" font-family="Arial" font-size="12.00"  text-anchor="end">
		<text><tspan font-family="Arial" > 20000</tspan></text>
	</g>
</g>
<g fill="none" color="black" stroke="currentColor" stroke-width="1.00" stroke-linecap="butt" stroke-linejoin="miter">
	<path stroke='black'  d='M70.5,232.8 L79.5,232.8 M615.0,232.8 L606.0,232.8  '/>	<g transform="translate(62.2,236.7)" stroke="none" fill="black" font-family="Arial" font-size="12.00"  text-anchor="end">
		<text><tspan font-family="Arial" > 30000</tspan></text>
	</g>
</g>
<g fill="none" color="black" stroke="currentColor" stroke-width="1.00" stroke-linecap="butt" stroke-linejoin="miter">
	<path stroke='black'  d='M70.5,167.8 L79.5,167.8 M615.0,167.8 L606.0,167.8  '/>	<g transform="translate(62.2,171.7)" stroke="none" fill="black" font-family="Arial" font-size="12.00"  text-anchor="end">
		<text><tspan font-family="Arial" > 40000</tspan></text>
	</g>
</g>
<g fill="none" color="black" stroke="currentColor" stroke-width="1.00" stroke-linecap="butt" stroke-linejoin="miter">
	<path stroke='black'  d='M70.5,102.8 L79.5,102.8 M615.0,102.8 L606.0,102.8  '/>	<g transform="translate(62.2,106.7)" stroke="none" fill="black" font-family="Arial" font-size="12.00"  text-anchor="end">
		<text><tspan font-family="Arial" > 50000</tspan></text>
	</g>
</g>
<g fill="none" color="black" stroke="currentColor" stroke-width="1.00" stroke-linecap="butt" stroke-linejoin="miter">
	<path stroke='black'  d='M70.5,37.8 L79.5,37.8 M615.0,37.8 L606.0,37.8  '/>	<g transform="translate(62.2,41.7)" stroke="none" fill="black" font-family="Arial" font-size="12.00"  text-anchor="end">
		<text><tspan font-family="Arial" > 60000</tspan></text>
	</g>
</g>
<g fill="none" color="black" stroke="currentColor" stroke-width="1.00" stroke-linecap="butt" stroke-linejoin="miter">
	<path stroke='black'  d='M70.5,392.0 L70.5,383.0 M70.5,18.1 L70.5,27.1  '/>	<g transform="translate(70.5,413.9)" stroke="none" fill="black" font-family="Arial" font-size="12.00"  text-anchor="middle">
		<text><tspan font-family="Arial" > 0</tspan></text>
	</g>
</g>
<g fill="none" color="black" stroke="currentColor" stroke-width="1.00" stroke-linecap="butt" stroke-linejoin="miter">
	<path stroke='black'  d='M125.5,392.0 L125.5,383.0 M125.5,18.1 L125.5,27.1  '/>	<g transform="translate(125.5,413.9)" stroke="none" fill="black" font-family="Arial" font-size="12.00"  text-anchor="middle">
		<text><tspan font-family="Arial" > 10</tspan></text>
	</g>
</g>
<g fill="none" color="black" stroke="currentColor" stroke-width="1.00" stroke-linecap="butt" stroke-linejoin="miter">
	<path stroke='black'  d='M180.5,392.0 L180.5,383.0 M180.5,18.1 L180.5,27.1  '/>	<g transform="translate(180.5,413.9)" stroke="none" fill="black" font-family="Arial" font-size="12.00"  text-anchor="middle">
		<text><tspan font-family="Arial" > 20</tspan></text>
	</g>
</g>
<g fill="none" color="black" stroke="currentColor" stroke-width="1.00" stroke-linecap="butt" stroke-linejoin="miter">
	<path stroke='black'  d='M235.5,392.0 L235.5,383.0 M235.5,18.1 L235.5,27.1  '/>	<g transform="translate(235.5,413.9)" stroke="none" fill="black" font-family="Arial" font-size="12.00"  text-anchor="middle">
		<text><tspan font-family="Arial" > 30</tspan></text>
	</g>
</g>
<g fill="none" color="black" stroke="currentColor" stroke-width="1.00" stroke-linecap="butt" stroke-linejoin="miter">
	<path stroke='black'  d='M290.5,392.0 L290.5,383.0 M290.5,18.1 L290.5,27.1  '/>	<g transform="translate(290.5,413.9)" stroke="none" fill="black" font-family="Arial" font-size="12.00"  text-anchor="middle">
		<text><tspan font-family="Arial" > 40</tspan></text>
	</g>
</g>
<g fill="none" color="black" stroke="currentColor" stroke-width="1.00" stroke-linecap="butt" stroke-linejoin="miter">
	<path stroke='black'  d='M345.5,392.0 L345.5,383.0 M345.5,18.1 L345.5,27.1  '/>	<g transform="translate(345.5,413.9)" stroke="none" fill="black" font-family="Arial" font-size="12.00"  text-anchor="middle">
		<text><tspan font-family="Arial" > 50</tspan></text>
	</g>
</g>
<g fill="none" color="black" stroke="currentColor" stroke-width="1.00" stroke-linecap="butt" stroke-linejoin="miter">
	<path stroke='black'  d='M400.5,392.0 L400.5,383.0 M400.5,18.1 L400.5,27.1  '/>	<g transform="translate(400.5,413.9)" stroke="none" fill="black" font-family="Arial" font-size="12.00"  text-anchor="middle">
		<text><tspan font-family="Arial" > 60</tspan></text>
	</g>
</g>
<g fill="none" color="black" stroke="currentColor" stroke-width="1.00" stroke-linecap="butt" stroke-linejoin="miter">
	<path stroke='black'  d='M455.5,392.0 L455.5,383.0 M455.5,18.1 L455.5,27.1  '/>	<g transform="translate(455.5,413.9)" stroke="none" fill="black" font-family="Arial" font-size="12.00"  text-anchor="middle">
		<text><tspan font-family="Arial" > 70</tspan></text>
	</g>
</g>
<g fill="none" color="black" stroke="currentColor" stroke-width="1.00" stroke-linecap="butt" stroke-linejoin="miter">
	<path stroke='black'  d='M510.5,392.0 L510.5,383.0 M510.5,18.1 L510.5,27.1  '/>	<g transform="translate(510.5,413.9)" stroke="none" fill="black" font-family="Arial" font-size="12.00"  text-anchor="middle">
		<text><tspan font-family="Arial" > 80</tspan></text>
	</g>
</g>
<g fill="none" color="black" stroke="currentColor" stroke-width="1.00" stroke-linecap="butt" stroke-linejoin="miter">
	<path stroke='black'  d='M565.5,392.0 L565.5,383.0 M565.5,18.1 L565.5,27.1  '/>	<g transform="translate(565.5,413.9)" stroke="none" fill="black" font-family="Arial" font-size="12.00"  text-anchor="middle">
		<text><tspan font-family="Arial" > 90</tspan></text>
	</g>
</g>
<g fill="none" color="black" stroke="currentColor" stroke-width="1.00" stroke-linecap="butt" stroke-linejoin="miter">
</g>
<g fill="none" color="black" stroke="currentColor" stroke-width="1.00" stroke-linecap="butt" stroke-linejoin="miter">
	<path stroke='black'  d='M70.5,18.1 L70.5,392.0 L615.0,392.0 L615.0,18.1 L70.5,18.1 Z  '/></g>
<g fill="none" color="black" stroke="currentColor" stroke-width="1.00" stroke-linecap="butt" stroke-linejoin="miter">
</g>
	<g id="gnuplot_plot_1" ><title>pages+cached+noexternal+nofonts+nosvg+noimg+nocss</title>
<g fill="none" color="black" stroke="currentColor" stroke-width="1.00" stroke-linecap="butt" stroke-linejoin="miter">
	<g transform="translate(537.4,431.9)" stroke="none" fill="black" font-family="Arial" font-size="12.00"  text-anchor="end">
		<text><tspan font-family="Arial" >pages+cached+noexternal+nofonts+nosvg+noimg+nocss</tspan></text>
	</g>
</g>
<g fill="none" color="black" stroke="currentColor" stroke-width="1.00" stroke-linecap="butt" stroke-linejoin="miter">
	<path stroke='rgb(148,   0, 211)'  d='M545.7,428.0 L587.9,428.0 M70.5,25.3 L76.0,25.3 L81.5,25.3 L87.0,25.3 L92.5,25.3 L98.0,25.3
		L103.5,25.3 L109.0,25.3 L114.5,25.3 L120.0,25.3 L125.5,25.3 L131.0,25.3 L136.5,25.3 L142.0,25.3
		L147.5,25.3 L153.0,25.3 L158.5,25.3 L164.0,25.3 L169.5,25.3 L175.0,25.3 L180.5,25.3 L186.0,25.3
		L191.5,25.3 L197.0,25.3 L202.5,25.3 L208.0,25.3 L213.5,25.3 L219.0,25.3 L224.5,25.3 L230.0,25.3
		L235.5,25.3 L241.0,25.3 L246.5,25.3 L252.0,25.3 L257.5,25.3 L263.0,25.3 L268.5,25.3 L274.0,25.3
		L279.5,25.3 L285.0,25.3 L290.5,25.3 L296.0,25.3 L301.5,25.3 L307.0,25.3 L312.5,25.3 L318.0,25.3
		L323.5,25.3 L329.0,25.3 L334.5,25.3 L340.0,25.3 L345.5,25.3 L351.0,25.3 L356.5,25.3 L362.0,25.3
		L367.5,25.3 L373.0,25.3 L378.5,25.3 L384.0,25.3 L389.5,25.3 L395.0,25.3 L400.5,25.3 L406.0,25.3
		L411.5,25.3 L417.0,25.3 L422.5,25.3 L428.0,25.3 L433.5,25.3 L439.0,25.3 L444.5,25.3 L450.0,25.3
		L455.5,25.3 L461.0,25.3 L466.5,25.3 L472.0,25.3 L477.5,25.3 L483.0,25.3 L488.5,25.3 L494.0,25.3
		L499.5,25.3 L505.0,25.3 L510.5,25.3 L516.0,25.3 L521.5,25.3 L527.0,25.3 L532.5,25.3 L538.0,25.3
		L543.5,25.3 L549.0,25.3 L554.5,25.3 L560.0,25.3 L565.5,25.3 L571.0,25.3 L576.5,25.3 L582.0,25.3
		L587.5,25.3 L593.0,25.3 L598.5,25.3 L604.0,25.3 L609.5,25.3 L615.0,25.3  '/></g>
	</g>
	<g id="gnuplot_plot_2" ><title>pages+cached+noexternal+nofonts+nosvg+noimg+nocss+nojs</title>
<g fill="none" color="black" stroke="currentColor" stroke-width="1.00" stroke-linecap="butt" stroke-linejoin="miter">
	<g transform="translate(537.4,449.9)" stroke="none" fill="black" font-family="Arial" font-size="12.00"  text-anchor="end">
		<text><tspan font-family="Arial" >pages+cached+noexternal+nofonts+nosvg+noimg+nocss+nojs</tspan></text>
	</g>
</g>
<g fill="none" color="black" stroke="currentColor" stroke-width="1.00" stroke-linecap="butt" stroke-linejoin="miter">
	<path stroke='rgb(  0, 158, 115)'  d='M545.7,446.0 L587.9,446.0 M70.5,384.8 L76.0,384.8 L81.5,384.8 L87.0,384.8 L92.5,384.8 L98.0,384.8
		L103.5,384.8 L109.0,384.8 L114.5,384.8 L120.0,384.8 L125.5,384.8 L131.0,384.8 L136.5,384.8 L142.0,384.8
		L147.5,384.8 L153.0,384.8 L158.5,384.8 L164.0,384.8 L169.5,384.8 L175.0,384.8 L180.5,384.8 L186.0,384.8
		L191.5,384.8 L197.0,384.8 L202.5,384.8 L208.0,384.8 L213.5,384.8 L219.0,384.8 L224.5,384.8 L230.0,384.8
		L235.5,384.8 L241.0,384.8 L246.5,384.8 L252.0,384.8 L257.5,384.8 L263.0,384.8 L268.5,384.8 L274.0,384.8
		L279.5,384.8 L285.0,384.8 L290.5,384.8 L296.0,384.8 L301.5,384.8 L307.0,384.8 L312.5,384.8 L318.0,384.8
		L323.5,384.8 L329.0,384.8 L334.5,384.8 L340.0,384.8 L345.5,384.8 L351.0,384.8 L356.5,384.8 L362.0,384.8
		L367.5,384.8 L373.0,384.8 L378.5,384.8 L384.0,384.8 L389.5,384.8 L395.0,384.8 L400.5,384.8 L406.0,384.8
		L411.5,384.8 L417.0,384.8 L422.5,384.8 L428.0,384.8 L433.5,384.8 L439.0,384.8 L444.5,384.8 L450.0,384.8
		L455.5,384.8 L461.0,384.8 L466.5,384.8 L472.0,384.8 L477.5,384.8 L483.0,384.8 L488.5,384.8 L494.0,384.8
		L499.5,384.8 L505.0,384.8 L510.5,384.8 L516.0,384.8 L521.5,384.8 L527.0,384.8 L532.5,384.8 L538.0,384.8
		L543.5,384.8 L549.0,384.8 L554.5,384.8 L560.0,384.8 L565.5,384.8 L571.0,384.8 L576.5,384.8 L582.0,384.8
		L587.5,384.8 L593.0,384.8 L598.5,384.8 L604.0,384.8 L609.5,384.8 L615.0,384.8  '/></g>
	</g>
	<g id="gnuplot_plot_3" ><title>score p10=2731008</title>
<g fill="none" color="black" stroke="currentColor" stroke-width="1.00" stroke-linecap="butt" stroke-linejoin="miter">
	<g transform="translate(537.4,467.9)" stroke="none" fill="black" font-family="Arial" font-size="12.00"  text-anchor="end">
		<text><tspan font-family="Arial" >score p10=2731008</tspan></text>
	</g>
</g>
<g fill="none" color="black" stroke="currentColor" stroke-width="1.00" stroke-linecap="butt" stroke-linejoin="miter">
	<path stroke='rgb( 86, 180, 233)'  d='M545.7,464.0 L587.9,464.0  '/></g>
	</g>
	<g id="gnuplot_plot_4" ><title>score median=4096000</title>
<g fill="none" color="black" stroke="currentColor" stroke-width="1.00" stroke-linecap="butt" stroke-linejoin="miter">
	<g transform="translate(537.4,485.9)" stroke="none" fill="black" font-family="Arial" font-size="12.00"  text-anchor="end">
		<text><tspan font-family="Arial" >score median=4096000</tspan></text>
	</g>
</g>
<g fill="none" color="black" stroke="currentColor" stroke-width="1.00" stroke-linecap="butt" stroke-linejoin="miter">
	<path stroke='rgb(230, 159,   0)'  d='M545.7,482.0 L587.9,482.0  '/></g>
	</g>
<g fill="none" color="#FFFFFF" stroke="rgb(230, 159,   0)" stroke-width="2.00" stroke-linecap="butt" stroke-linejoin="miter">
</g>
<g fill="none" color="black" stroke="currentColor" stroke-width="2.00" stroke-linecap="butt" stroke-linejoin="miter">
</g>
<g fill="none" color="black" stroke="black" stroke-width="1.00" stroke-linecap="butt" stroke-linejoin="miter">
</g>
<g fill="none" color="black" stroke="currentColor" stroke-width="1.00" stroke-linecap="butt" stroke-linejoin="miter">
	<path stroke='black'  d='M70.5,18.1 L70.5,392.0 L615.0,392.0 L615.0,18.1 L70.5,18.1 Z  '/></g>
<g fill="none" color="black" stroke="currentColor" stroke-width="1.00" stroke-linecap="butt" stroke-linejoin="miter">
</g>
</g>
</svg>
